img/brand_visual_person3_bubble.svg

<svg width="52" height="50" viewBox="0 0 52 50" fill="none" xmlns="http://www.w3.org/2000/svg">
<g clip-path="url(#clip0)">
<path d="M2.80124 10.6731C5.19575 6.77705 8.95045 3.90644 13.3396 2.61606C20.8432 -0.000170708 27.0462 -0.833365 34.825 0.958003C42.6037 2.74937 50.3491 8.33177 51.6914 16.2221C52.5251 21.0047 52.0666 26.6204 47.7228 31.3779C39.052 40.8264 32.3488 38.0768 29.6808 39.5182C25.6455 41.7012 24.6284 47.3336 20.8933 49.9915C20.2263 48.1501 20.5931 46.0588 19.9428 44.2091C18.7672 40.8764 14.8654 39.5349 11.7722 37.7935C2.75955 32.7194 -4.0604 21.4546 2.80124 10.6731Z" fill="#FFE87B"/>
<path d="M39.7357 13.3311C40.2866 13.2379 40.8528 13.3216 41.3532 13.5701C41.8535 13.8186 42.2621 14.2192 42.5204 14.7142C42.7296 15.2029 42.7518 15.7513 42.5827 16.2552C42.4136 16.7591 42.065 17.1833 41.6033 17.4471C40.9613 17.7971 40.2276 17.9887 39.569 18.2803C38.8363 18.637 38.2204 19.1948 37.7931 19.8884C36.9594 21.2465 37.0094 22.9462 37.1595 24.471C37.1679 24.7998 37.3024 25.1128 37.5351 25.3453C37.7679 25.5779 38.0811 25.7123 38.4101 25.7207C38.7411 25.7186 39.0579 25.5862 39.292 25.3523C39.5261 25.1184 39.6585 24.8017 39.6607 24.471C39.5273 23.0795 39.2855 21.2298 40.7529 20.4799C41.5543 20.174 42.339 19.8264 43.104 19.4385C43.8478 18.9612 44.4292 18.2698 44.7715 17.4555C45.1289 16.6348 45.2465 15.7298 45.1108 14.8451C44.975 13.9604 44.5915 13.1322 44.0045 12.4563C43.3786 11.7826 42.5891 11.2821 41.7126 11.0033C40.8362 10.7244 39.9024 10.6768 39.0021 10.8649C38.6911 10.9649 38.4307 11.181 38.2754 11.4682C38.1201 11.7554 38.0817 12.0915 38.1683 12.4063C38.2101 12.5701 38.2839 12.724 38.3853 12.8592C38.4868 12.9945 38.614 13.1083 38.7597 13.1943C38.9053 13.2802 39.0666 13.3365 39.2341 13.36C39.4016 13.3835 39.572 13.3737 39.7357 13.3311Z" fill="#28C99B"/>
<path d="M37.3179 27.9954L37.2512 28.1703C37.2096 28.3344 37.2096 28.5062 37.2512 28.6702C37.2635 28.8357 37.3125 28.9963 37.3947 29.1404C37.4769 29.2846 37.5903 29.4086 37.7264 29.5034C37.8465 29.6136 37.9929 29.6911 38.1516 29.7284L38.4851 29.7701C38.7046 29.7703 38.9202 29.7128 39.1104 29.6034L39.3689 29.4035C39.5181 29.2489 39.6269 29.0601 39.6857 28.8535L39.7524 28.6786C39.794 28.5145 39.794 28.3427 39.7524 28.1787C39.7446 28.0152 39.6928 27.8568 39.6023 27.7204C39.5282 27.5761 39.4157 27.4551 39.2772 27.3705C39.1606 27.2553 39.0127 27.1771 38.852 27.1455L38.5185 27.0955C38.2978 27.0944 38.0812 27.155 37.8932 27.2705L37.6347 27.4621C37.4856 27.6166 37.3767 27.8055 37.3179 28.012V27.9954Z" fill="#28C99B"/>
<path d="M10.5801 20.3133C12.1225 18.5053 13.6399 16.6806 15.2657 14.9475C16.0994 14.1143 16.9332 13.2811 17.7669 12.4479C18.1171 12.1397 18.4922 11.6731 18.9758 11.6147C19.5794 11.7048 20.1648 11.8905 20.71 12.1647C24.6248 13.6474 28.4069 15.4591 32.0154 17.5804C33.4328 18.3553 34.6917 16.1973 33.2827 15.4224C29.0723 13.1395 24.9453 10.8482 20.3265 9.40678C19.8008 9.17574 19.2234 9.08721 18.6526 9.15011C18.0818 9.213 17.5376 9.42511 17.0749 9.76505C16.0707 10.5496 15.126 11.4074 14.2485 12.3313C12.3143 14.2893 10.5634 16.4139 8.77924 18.5053C7.74541 19.7217 9.50459 21.4964 10.5468 20.2716L10.5801 20.3133Z" fill="#28C99B"/>
<path d="M10.2799 17.3721C10.3204 20.5042 10.7204 23.6213 11.4722 26.6623C11.5932 27.2741 11.8724 27.8437 12.2819 28.3143C12.6915 28.785 13.2171 29.1404 13.8066 29.3451C15.1564 29.6206 16.5423 29.6712 17.9086 29.4951C21.1602 29.3674 24.4062 29.1368 27.6466 28.8036C28.8972 28.6703 30.573 28.7452 31.5985 27.9037C32.624 27.0622 32.499 25.5791 32.3239 24.2876C31.8607 20.9361 31.1783 17.6184 30.2812 14.356C30.1809 14.0517 29.9675 13.7976 29.6851 13.646C29.4027 13.4945 29.0729 13.457 28.7637 13.5415C28.4545 13.626 28.1895 13.8259 28.0235 14.0999C27.8576 14.374 27.8032 14.7013 27.8717 15.0142C28.6726 17.9445 29.3045 20.9183 29.7643 23.921C29.8143 24.2543 30.1978 25.6624 29.9978 25.929C29.7977 26.1957 28.4303 26.204 28.0301 26.2457C26.3627 26.429 24.7091 26.5789 23.0694 26.6956C21.4297 26.8122 19.7623 26.9039 18.067 26.9705C17.3083 26.9705 16.5413 27.0289 15.7742 27.0372C15.2323 27.0372 14.482 27.1288 14.1068 26.6539C13.8113 26.0845 13.6354 25.4607 13.5899 24.8209C13.4231 23.9877 13.273 23.1045 13.148 22.2463C12.9315 20.6295 12.798 19.0026 12.7478 17.3721C12.6978 15.7641 10.1966 15.7557 10.2466 17.3721H10.2799Z" fill="#28C99B"/>
<path d="M22.861 19.4051C22.3274 19.0385 20.4515 19.3635 19.3676 19.5301C18.9925 19.5967 18.5339 19.7134 18.4088 20.0633C18.3463 20.2755 18.3463 20.5011 18.4088 20.7132C18.8674 23.0868 19.4914 25.4255 20.2764 27.7121C20.3081 27.8412 20.3744 27.9593 20.4682 28.0537C20.6114 28.1464 20.782 28.1875 20.9517 28.1703H23.9365C24.0581 28.1862 24.1817 28.1766 24.2994 28.1422C24.4171 28.1078 24.5263 28.0493 24.6202 27.9704C24.7301 27.8239 24.7887 27.6452 24.7869 27.4621C25.0537 24.6792 23.4029 19.7717 22.861 19.4051Z" fill="#28C99B"/>
</g>
<defs>
<clipPath id="clip0">
<rect width="52" height="50" fill="white"/>
</clipPath>
</defs>
</svg>

<svg xmlns="http://www.w3.org/2000/svg" width="52" height="50" fill="none" xmlns:v="https://vecta.io/nano"><g clip-path="url(#A)"><path d="M2.801 10.673A18.49 18.49 0 0 1 13.34 2.616C20.843 0 27.046-.833 34.825.958s15.524 7.374 16.866 15.264c.834 4.783.375 10.398-3.969 15.156-8.671 9.449-15.374 6.699-18.042 8.14-4.035 2.183-5.052 7.815-8.788 10.473-.667-1.841-.3-3.933-.951-5.782-1.176-3.333-5.077-4.674-8.171-6.416C2.76 32.719-4.06 21.455 2.801 10.673z" fill="#ffe87b"/><g fill="#28c99b"><path d="M39.736 13.331a2.65 2.65 0 0 1 1.617.239 2.64 2.64 0 0 1 1.167 1.144c.209.489.231 1.037.062 1.541a2.17 2.17 0 0 1-.979 1.192c-.642.35-1.376.542-2.034.833-.733.357-1.349.915-1.776 1.608-.834 1.358-.784 3.058-.634 4.583a1.28 1.28 0 0 0 1.251 1.249 1.26 1.26 0 0 0 1.251-1.25c-.133-1.392-.375-3.241 1.092-3.991.801-.306 1.586-.654 2.351-1.041a4.37 4.37 0 0 0 1.668-1.983 4.74 4.74 0 0 0-.767-4.999c-.626-.674-1.415-1.174-2.292-1.453a5.34 5.34 0 0 0-2.711-.138 1.27 1.27 0 0 0-.727.603 1.26 1.26 0 0 0-.107.938 1.29 1.29 0 0 0 .591.788 1.29 1.29 0 0 0 .474.166 1.27 1.27 0 0 0 .502-.029zm-2.418 14.664l-.067.175a1.01 1.01 0 0 0 0 .5 1.1 1.1 0 0 0 .144.47 1.13 1.13 0 0 0 .332.363.95.95 0 0 0 .425.225l.334.042a1.25 1.25 0 0 0 .625-.167l.258-.2a1.31 1.31 0 0 0 .317-.55l.067-.175a1.01 1.01 0 0 0 0-.5c-.008-.163-.06-.322-.15-.458a.88.88 0 0 0-.325-.35.84.84 0 0 0-.425-.225l-.333-.05a1.18 1.18 0 0 0-.625.175l-.258.192a1.31 1.31 0 0 0-.317.55v-.017zM10.58 20.313l4.686-5.366 2.501-2.5c.35-.308.725-.775 1.209-.833a5.75 5.75 0 0 1 1.734.55 74.09 74.09 0 0 1 11.305 5.416c1.417.775 2.676-1.383 1.267-2.158-4.21-2.283-8.337-4.574-12.956-6.016a3.27 3.27 0 0 0-3.252.358 25.83 25.83 0 0 0-2.826 2.566c-1.934 1.958-3.685 4.083-5.469 6.174-1.034 1.216.725 2.991 1.768 1.766l.033.042z"/><path d="M10.28 17.372c.04 3.132.441 6.249 1.192 9.29.121.612.4 1.181.81 1.652s.935.826 1.525 1.031c1.35.276 2.736.326 4.102.15l9.738-.692c1.251-.133 2.926-.058 3.952-.9s.901-2.325.725-3.616a77.45 77.45 0 0 0-2.043-9.932 1.25 1.25 0 0 0-1.517-.815 1.25 1.25 0 0 0-.892 1.473c.801 2.93 1.433 5.904 1.893 8.907.05.333.434 1.741.234 2.008s-1.568.275-1.968.317l-4.961.45a157.93 157.93 0 0 1-5.002.275l-2.293.067c-.542 0-1.292.092-1.667-.383-.296-.569-.471-1.193-.517-1.833a50.08 50.08 0 0 1-.442-2.575 47.81 47.81 0 0 1-.4-4.874c-.05-1.608-2.551-1.616-2.501 0h.033z"/><path d="M22.861 19.405c-.534-.367-2.41-.042-3.493.125-.375.067-.834.183-.959.533a1.15 1.15 0 0 0 0 .65c.459 2.374 1.083 4.712 1.868 6.999.032.129.098.247.192.342a.75.75 0 0 0 .483.117h2.985c.122.016.245.006.363-.028s.227-.093.321-.172c.11-.147.168-.325.167-.508.267-2.783-1.384-7.69-1.926-8.057z"/></g></g><defs><clipPath id="A"><path fill="#fff" d="M0 0h52v50H0z"/></clipPath></defs></svg>
